X:1
T:A Mighty Fortress Is Our God
T:Text: Martin Luther, 1529; tr. Fredrick H. Hedge, 1852; based on Psalm 46 Tune: Martin Luther, 1529, alt.; harm. Johann S. Bach, 1685-1750
T:87 87 66 66 7 EIN FESTE BURG (isorhythmic) www.hymnary.org/text/a_mighty_fortress_is_our_god_a_bulwark
T:A Mighty Fortress Is Our God
T:This hymn is in the public domain. You may freely use this score for personal and congregational worship. If you reproduce the score, please credit Hymnary.org as the source. 
T:This hymn is in the public domain. You may freely use this score for personal and congregational worship. If you reproduce the score, please credit Hymnary.org as the source. 
T:This hymn is in the public domain. You may freely use this score for personal and congregational worship. If you reproduce the score, please credit Hymnary.org as the source. 
Z:This hymn is in the public domain. You may freely use this score for personal and congregational worship. If you reproduce the score, please credit Hymnary.org as the source.
%%score ( 1 2 ) ( 3 4 )
L:1/8
M:4/4
K:C
V:1 treble nm="SOPRANO ALTO" snm="S. A."
V:2 treble 
V:3 bass nm="TENOR BASS" snm="T. B."
V:4 bass 
V:1
 c2 | c2 c2 GA B2 | cB A2 G2 c2 | B2 A2 | G2 A2 (FE D2) | C4 c2 | c2 c2 GA B2 | cB A2 G2 |1 c2 | %9
w: A|might- y for- * tress|is * our God, a|bul- wark|nev- er fail- * *|ing; our|help- er he, * a-|mid * the flood|of|
w: Did|we in our * own|strength _ con- fide, our|striv- ing|would be los- * *|ing, were|not the right * Man|on * our side,|the|
w: And|though this world, _ with|dev- * ils filled, should|threat- en|to un- do * *|us, we|will not fear, * for|God * has willed|his|
w: That|Word a- bove * all|earth- * ly powers— no|thanks to|them— a- bid- * *|eth; the|Spir- it and * the|gifts * are ours|through|
 B2 A2 G2 A2 (FE D2) | C4 C2 | G2 A2 G2 ^F2 | G6 ||"^Page 2" C2 | G2 G2 A2 B2 | c6 B2 | %16
w: mor- tal ills pre- vail- * *|ing. For|still our an- cient|foe|does|seek to work us|woe; his|
w: Man of God's own choos- * *|ing. You|ask who that may|be?|Christ|Je- sus, it is|he; Lord|
w: truth to tri- umph through * *|us. The|prince of dark- ness|grim,|we|trem- ble not for|him; his|
w: him who with us sid- * *|eth. Let|goods and kin- dred|go,|this|mor- tal life al-|so; the|
 c2 B2 A2"^A Mighty Fortress Is Our God" A2 | G6 | A2 | A2 G2 A2 F2 | E6 c2 | B2 A2 G2 A2 (FE D2) | %22
w: craft and power are|great,|and|armed with cru- el|hate, on|earth is not his e- * *|
w: Sa- ba- oth his|name,|from|age to age the|same; and|he must win the bat- * *|
w: rage we can en-|dure,|for|lo! his doom is|sure; one|lit- tle word shall fell * *|
w: bod- y they may|kill:|God's|truth a- bid- eth|still; his|king- dom is for- ev- * *|
 C6 x6 |] %23
w: qual.|
w: tle.|
w: him.|
w: er!|
V:2
 E2 | C2 E2 D2 E2 | C2 DC B,2 C2 | E2 C2 | C2 C2 (A,2 B,2) | C4 E2 | C2 E2 D2 E2 | C2 DC B,2 |1 %8
 C2 | E2 C2 C2 C2 (A,2 B,2) | C4 C2 | E2 E2 D2 D2 | D6 || C2 | D2 E2 F2 F2 | E6 E2 | C2 D2 E2 DC | %17
 B,6 | D2 | C2 E2 E2 D2 | B,6 C2 | E2 C2 C2 C2 (A,2 B,2) | C6 x6 |] %23
V:3
 G,2 | G,2 G,2 B,2 G,2 | A,2 ^F,2 G,2 E,2 | G,2 F,2 | E,2 E,2 (F,2 G,F,) | E,4 G,2 | %6
 G,2 G,2 B,2 G,2 | A,2 F,2 G,2 |1 E,2 | G,2 F,2 E,2 E,2 (F,2 G,F,) | E,4 E,2 | G,2 C2 B,2 A,2 | %12
 B,6 || A,2 | G,2 C2 C2 D2 | C6 G,2 | A,2 G,2 G,2 ^F,2 | G,6 | =F,2 | A,2 C2 A,2 A,2 | ^G,6 A,2 | %21
 G,2 F,2 E,2 E,2 (F,2 G,F,) | E,6 x6 |] %23
V:4
 C,2 | E,2 C,2 G,2 E,2 | A,,2 D,2 G,,2 A,,2 | E,2 F,2 | C,2 A,,2 (D,2 G,,2) | C,4 C,2 | %6
 E,2 C,2 G,2 E,2 | A,,2 D,2 G,,2 |1 A,,2 | E,2 F,2 C,2 A,,2 (D,2 G,,2) | C,4 C,2 | %11
 C,2 A,,2 B,,C, D,2 | G,,6 || A,,2 | B,,2 C,2 F,E, D,2 | A,,6 E,2 | A,,2 B,,2 C,2 D,2 | G,,6 | %18
 D,2 | F,2 C,2 ^C,2 D,2 | E,6 A,,2 | E,2 F,2 C,2 A,,2 (D,2 G,,2) | C,6 x6 |] %23

